X:1
T:St. Patrick (Hogan), LM
T:Frederick William Hogan, 1868
T:St. Patrick (Hogan), LM
T:Public Domain
C:Frederick William Hogan, 1868
Z:Public Domain
%%score ( 1 2 ) ( 3 4 )
L:1/8
M:none
K:Eb
V:1 treble 
V:2 treble 
V:3 bass 
V:4 bass 
V:1
 [EG]2 | [EG]3 [EG] [EB]2 [DF]2 | [DF]3 [EG] [EG]2 [FB]2 | [Ee]2 [Ge]2 [Gd]2 [DB]2 | %4
 [Ec]2 [Ec]2 [DB]2 [DB]2 | [DB]2 (GF) [=EA]2 [EG]2 | F2 [=EG]2 [FA]2 F2 | E2 z F (ED)(G,=A,) x | %8
 [B,D]4 [DF]3 E | E6 |] %10
V:2
 x2 | x8 | x8 | x8 | x8 | x2 B2 x4 | F2 x2 F2 x2 | G3 (D2 C2) C2 | x7 E | E6 |] %10
V:3
 [E,B,]2 | [E,B,]3 [E,B,] [G,,B,]2 [B,,A,]2 | [E,A,]3 [E,G,] [E,G,]2 [D,F,]2 | %3
 [C,G,]2 [C,C]2 [G,B,]2 [G,B,]2 | [F,B,]2 [F,=A,]2 [B,,B,]2 (B,,=A,,) | %5
 [G,,B,]2 [G,,D]2 [C,C]2 [C,B,]2 | [C,A,]2 [C,G,]2 F,2 [D,B,]2 | E,2 z A, (G,F,) [C,E,]2 x | %8
 [B,,-F,]4 [B,,A,]3 [E,G,] | [E,G,]6 |] %10
V:4
 x2 | x8 | x8 | x8 | x6 B,2 | x8 | x4 F,2 x2 | B,3 (B,,2 C,2) x2 | x8 | x6 |] %10

